X: 6177
T: Car Ny Rankee
R: polka
M: 2/4
K: Gmajor
G2 B2 G2 B2|G2 B2 d2 cB|A2 c2 A2 c2|A2 c2 e2 dc|
B2 d2 B2 d2|B2 d2 g3e|d2 c2 B2 A2|G4 G4:|
d2 ef g2 fe|d2 B2 B4|d2 ef g2 d2|B2 c2 A4|
G3A B3A|GFGA B2 c2|d2 c2 B2 A2|G4 G4:|

